src/32x32/places/folder-gruvbox-original-red-applications.svg

<svg xmlns="http://www.w3.org/2000/svg" width="32" height="32" version="1">
 <rect style="opacity:0.2" width="28" height="18" x="2" y="11" rx="1.4" ry="1.4"/>
 <path style="fill:#9d0006" d="M 2,22.6 C 2,23.376 2.6244,24 3.4,24 H 28.6 C 29.376,24 30,23.376 30,22.6 V 7.4 C 30,6.6244 29.376,6 28.6,6 H 16 C 13.9,6 13.2,3 11.1,3 H 3.4 C 2.6244,3 2,3.6244 2,4.4"/>
 <rect style="opacity:0.2" width="28" height="18" x="2" y="9" rx="1.4" ry="1.4"/>
 <rect style="fill:#efd2b3" width="24" height="11" x="4" y="8" rx="1.4" ry="1.4"/>
 <rect style="fill:#fb4934" width="28" height="18" x="2" y="10" rx="1.4" ry="1.4"/>
 <path style="opacity:0.1;fill:#efd2b3" d="M 3.4004,3 C 2.6248,3 2,3.6248 2,4.4004 V 5.4004 C 2,4.6248 2.6248,4 3.4004,4 H 11.1 C 13.2,4 13.9,7 16,7 H 28.6 C 29.375,7 30,7.6248 30,8.4004 V 7.4004 C 30,6.6248 29.375,6 28.6,6 H 16 C 13.9,6 13.2,3 11.1,3 Z"/>
 <path style="fill:#442e2d" d="M 11.427734 13 C 10.636305 13 10 13.63623 10 14.427734 L 10 16.572266 C 10 17.36377 10.636305 18 11.427734 18 L 13.572266 18 C 14.363694 18 15 17.36377 15 16.572266 L 15 14.427734 C 15 13.63623 14.363694 13 13.572266 13 L 11.427734 13 z M 18.427734 13 C 17.636305 13 17 13.63623 17 14.427734 L 17 16.572266 C 17 17.36377 17.636305 18 18.427734 18 L 20.572266 18 C 21.363694 18 22 17.36377 22 16.572266 L 22 14.427734 C 22 13.63623 21.363694 13 20.572266 13 L 18.427734 13 z M 11.427734 20 C 10.636305 20 10 20.63623 10 21.427734 L 10 23.572266 C 10 24.36377 10.636305 25 11.427734 25 L 13.572266 25 C 14.363694 25 15 24.36377 15 23.572266 L 15 21.427734 C 15 20.63623 14.363694 20 13.572266 20 L 11.427734 20 z M 19.5 20 C 19.223 20 19 20.227112 19 20.509766 L 19 21.990234 C 19 21.993734 19.001853 21.9965 19.001953 22 L 17.357422 22 A 0.35719347 0.3750467 0 0 0 17.105469 22.640625 L 19.248047 24.890625 A 0.35719347 0.3750467 0 0 0 19.751953 24.890625 L 21.894531 22.640625 A 0.35719347 0.3750467 0 0 0 21.642578 22 L 19.998047 22 C 19.998114 21.9965 20 21.993734 20 21.990234 L 20 20.509766 C 19.999953 20.227112 19.777 20 19.5 20 z"/>
</svg>

<?xml version="1.0" encoding="UTF-8"?>
<svg width="32" height="32" version="1" xmlns="http://www.w3.org/2000/svg">
 <rect x="2" y="11" width="28" height="18" rx="1.4" ry="1.4" opacity=".2"/>
 <path d="m2 22.6c0 0.776 0.6244 1.4 1.4 1.4h25.2c0.776 0 1.4-0.624 1.4-1.4v-15.2c0-0.7756-0.624-1.4-1.4-1.4h-12.6c-2.1 0-2.8-3-4.9-3h-7.7c-0.7756 0-1.4 0.6244-1.4 1.4" fill="#9d0006"/>
 <rect x="2" y="9" width="28" height="18" rx="1.4" ry="1.4" opacity=".2"/>
 <rect x="4" y="8" width="24" height="11" rx="1.4" ry="1.4" fill="#efd2b3"/>
 <rect x="2" y="10" width="28" height="18" rx="1.4" ry="1.4" fill="#fb4934"/>
 <path d="m3.4004 3c-0.7756 0-1.4004 0.6248-1.4004 1.4004v1c0-0.7756 0.6248-1.4004 1.4004-1.4004h7.6996c2.1 0 2.8 3 4.9 3h12.6c0.775 0 1.4 0.6248 1.4 1.4004v-1c0-0.7756-0.625-1.4004-1.4-1.4004h-12.6c-2.1 0-2.8-3-4.9-3z" fill="#efd2b3" opacity=".1"/>
 <path d="m11.428 13c-0.79143 0-1.4277 0.63623-1.4277 1.4277v2.1445c0 0.7915 0.6363 1.4277 1.4277 1.4277h2.1445c0.79143 0 1.4277-0.63623 1.4277-1.4277v-2.1445c0-0.7915-0.63631-1.4277-1.4277-1.4277h-2.1445zm7 0c-0.79143 0-1.4277 0.63623-1.4277 1.4277v2.1445c0 0.7915 0.6363 1.4277 1.4277 1.4277h2.1445c0.79143 0 1.4277-0.63623 1.4277-1.4277v-2.1445c0-0.7915-0.63631-1.4277-1.4277-1.4277h-2.1445zm-7 7c-0.79143 0-1.4277 0.63623-1.4277 1.4277v2.1445c0 0.7915 0.6363 1.4277 1.4277 1.4277h2.1445c0.79143 0 1.4277-0.63623 1.4277-1.4277v-2.1445c0-0.7915-0.63631-1.4277-1.4277-1.4277h-2.1445zm8.0723 0c-0.277 0-0.5 0.22711-0.5 0.50977v1.4805c0 0.0035 0.001853 0.006266 0.001953 0.009766h-1.6445a0.35719 0.37505 0 0 0-0.25195 0.64062l2.1426 2.25a0.35719 0.37505 0 0 0 0.50391 0l2.1426-2.25a0.35719 0.37505 0 0 0-0.25195-0.64062h-1.6445c6.7e-5 -0.0035 0.001953-0.006266 0.001953-0.009766v-1.4805c-4.7e-5 -0.28265-0.223-0.50977-0.5-0.50977z" fill="#442e2d"/>
</svg>
